X:1
T:Title
%%score { ( 1 2 ) | ( 3 4 ) }
L:1/8
Q:1/4=100
M:4/4
K:F
V:1 treble nm="Grand Piano"
V:2 treble 
V:3 bass 
V:4 bass 
V:1
 [FA]2 [EG]2 z2 CG | FEDE F2 C2 | F2 A2 D2 [FB]2 | [FA]2 [FG]2 [EG]4 | [FA]2 [EG]2 z2 CG | %5
w: B.~C.~Unseld * * *|||||
 FEDE F2 C2 | F2 A2 D2 [FB]2 | [FA]2 [EG]2 F4 | A2 c2 c3 A | [Fd][_Ec][DB][Ec] [Fd]2 [FB]2 | %10
w: |||||
 A2 c2 c3 A | G2 d2 [Ec]4 | [FA]2 [EG]2 z2 CG | FEDE F2 C2 | F2 A2 [Dd]3 [B,FB] | %15
w: |||||
 [CFA]2 [B,EG]2 [A,F]4 |] %16
w: |
V:2
 z4 F4 | x8 | x8 | x8 | z4 F4 | x8 | x8 | x8 | x8 | x8 | x8 | x8 | z4 F4 | x8 | x8 | x8 |] %16
V:3
 [F,C]2 [C,B,]2 [F,A,]2 z C | [C,G,C]2 [C,B,C]2 [F,A,C]2 [E,G,]2 | %2
 [D,F,A,]2 [C,F,C]2 [B,,B,]2 [D,B,]2 | [F,C]2 [G,=B,]2 [C,C]4 | [F,C]2 [C,B,]2 [F,A,]2 z C | %5
 [C,G,C]2 [C,B,C]2 [F,A,C]2 [G,B,]2 | [A,C]2 [F,C]2 [B,,B,]2 [D,B,]2 | [C,C]2 [C,B,]2 [F,A,]4 | %8
 [F,CF]2 [F,A,F]2 [F,A,F]3 [F,CF] | [B,,B,]2 [B,,B,]2 [B,,B,]2 [D,B,]2 | %10
 [F,CF]2 [F,A,F]2 [F,A,F]3 [F,CF] | [G,=B,F]2 [G,B,F]2[K:bass] [C,C]4 | %12
 [F,C]2 [C,B,]2 [F,A,]2 z C | [C,G,C]2 [C,B,C]2 [F,A,C]2 [G,B,]2 | [A,C]2 [F,C_E]2 [B,,B,]3 D, | %15
 C,2 C,2 F,4 |] %16
V:4
 z4 z2 A,,2 | x8 | x8 | x8 | z4 z2 A,,2 | x8 | x8 | x8 | x8 | x8 | x8 | x4[K:bass] x4 | %12
 z4 z2 A,,2 | x8 | x8 | x8 |] %16

